Surfn/22/actions/view-refresh.svg

<svg width="22" xmlns="http://www.w3.org/2000/svg" height="22" viewBox="0 0 22 22">
<path style="fill:#859900;fill-rule:evenodd" d="M 21,11 C 21,16.522017 16.522017,21 11,21 5.4779827,21 0.99999999,16.522017 0.99999999,11 0.99999999,5.4779827 5.4779827,0.99999999 11,0.99999999 16.522017,0.99999999 21,5.4779827 21,11 z"/>
<g style="fill:#fff;fill-opacity:.902" transform="matrix(.93333 0 0 .96 .73333 .44)">
<path d="M 17.090199,8.5071018 C 16.035511,6.2201709 13.674005,4.75 11.014205,4.75 8.2940345,4.75 5.8046873,6.3586645 4.8245736,8.74858 l 2.06321,0.75284 c 0.6534091,-1.5980109 2.31179,-2.6669027 4.1264214,-2.6669027 1.75071,0 3.299005,0.9552554 4.016335,2.4467327 L 13.524858,9.8494318 17.37429,11.941051 18.5,7.9779827 z"/>
<path d="m 11.014205,15.169035 c -1.7365059,0 -3.3167614,-0.987217 -4.0234377,-2.46804 L 8.4715909,12.161222 4.6647727,10.112216 3.5,13.972301 4.9204545,13.453835 C 5.9538354,15.733665 8.3721591,17.25 11.014205,17.25 c 2.730823,0 5.149148,-1.544745 6.161221,-3.934659 l -2.052557,-0.770596 c -0.674715,1.59446 -2.286932,2.62429 -4.108664,2.62429 z"/>
</g>
</svg>

<?xml version="1.0" encoding="UTF-8" standalone="no"?>
<svg xmlns:rdf="http://www.w3.org/1999/02/22-rdf-syntax-ns#" xmlns="http://www.w3.org/2000/svg" version="1.1" xmlns:cc="http://creativecommons.org/ns#" xmlns:dc="http://purl.org/dc/elements/1.1/" viewBox="0 0 22 22">
 <path fill-rule="evenodd" fill="#828282" d="m21 11c0 5.522-4.478 10-10 10s-10-4.478-10-10 4.478-10 10-10 10 4.478 10 10z"/>
 <g fill-opacity=".902" fill="#ffffff" transform="matrix(.93333 0 0 .96 .73333 .44)">
  <path d="m17.09 8.5071c-1.054-2.2869-3.416-3.7571-6.076-3.7571-2.72 0-5.2093 1.6087-6.1894 3.9986l2.0632 0.75284c0.65341-1.598 2.3118-2.6669 4.1264-2.6669 1.7507 0 3.299 0.95526 4.0163 2.4467l-1.505 0.5682 3.849 2.0916 1.126-3.963z"/>
  <path d="m11.014 15.169c-1.7365 0-3.3168-0.98722-4.0234-2.468l1.481-0.54-3.8068-2.049-1.1648 3.86 1.4205-0.518c1.0333 2.28 3.4517 3.796 6.0935 3.796 2.7308 0 5.1491-1.5447 6.1612-3.9347l-2.0526-0.7706c-0.67472 1.5945-2.2869 2.6243-4.1087 2.6243z"/>
 </g>
</svg>
